startshape Begin

background {a -1}

rule Heart {
	HeartBits{s 0.6 r 55}
}

rule HeartBits {
	CIRCLE{x 0.5}
	CIRCLE{y 0.5}
	SQUARE{}
}

rule Begin { V1{sat 0.9 b 0.9 hue 330 r 300 f 180} }

rule Circles { 3 * { x 1.2 hue 15 s 1.1 } Heart{} }

rule Circles 0.1 { Circles{hue 15} }

rule V1 {
	Circles{}
	V1{r 1 s 0.95 y 1}
}

