startshape Begin

background {a -1}

rule Begin { V1{sat 0.9 b 0.9 hue 330 r 120 f 180} }

rule Circles { 3 * { x 1.2 hue 15 s 1.1 } CIRCLE{} }

rule Circles 0.1 { Circles{hue 15} }

rule V1 {
	Circles{}
	V1{r 1 s 0.95 y 1}
}
